public/icon/svg/Esxi.svg

<?xml version="1.0" encoding="UTF-8"?>
<svg width="1024px" height="1024px" viewBox="0 0 1024 1024" version="1.1" xmlns="http://www.w3.org/2000/svg" xmlns:xlink="http://www.w3.org/1999/xlink">
    <title>Esxi</title>
    <g id="ICON-新版方图标" stroke="none" stroke-width="1" fill="none" fill-rule="evenodd">
        <g id="Esxi">
            <rect id="蒙版路径" fill="#FFFFFF" x="0" y="0" width="1024" height="1024"></rect>
            <path d="M807,150 C835.485833,152.322168 868.161888,180.035462 871,210 C873.210416,260.839572 873,511 871,623 C870,648 829.60009,675.544269 807,678 C789.327732,679.920273 748.994399,679.920273 686,678 C686.666667,746 686.666667,789.333333 686,808 C685,830 654.135437,865.706789 625,869 C498,869 352,870 221,869 C186.9827,865.839048 161.467188,842.104433 158,808 C157,692 157,466 158,407 C160.563502,375.189995 190.805388,347.037734 221,343 C262.333333,343 304,343 346,343 C345.333333,285 345.333333,240.666667 346,210 C348.889011,183.65065 375.192952,152.52184 404,150 C546,149 639,148 807,150 Z" id="矩形" fill="#83B347"></path>
            <path d="M751,245 C769.801927,246.532735 779.126719,255.222062 781,275 C782.141868,301.262964 780,491 781,565 C779.767556,585.309 757.66667,592.275598 751,593 C739.335511,594.267466 687.335511,594.267466 595,593 C595.666667,687 595.666667,740.666667 595,754 C592.917492,771.179071 587.230694,780.826333 568,783 C481,784 281.133379,788.329216 278,785 C269,783 251.288499,776.510454 249,754 C248.339955,677.434801 247.339955,506.942644 248,468 C249.692026,447.003971 264.230761,437.972793 280,436 C302.666667,435.333333 354,435.333333 434,436 C433.55997,348.908041 433.55997,295.241374 434,275 C435.906877,257.608248 444.986057,246.664527 464,245 C557.726364,244.339955 640.11247,243.67991 751,245 Z" id="矩形" fill="#FFFFFF"></path>
            <path d="M692.814895,319.658065 C704.126464,320.580185 709.736422,325.807836 710.863421,337.70659 C711.550389,353.506849 710.398382,463.480304 711,508 C710.25854,520.21825 699,529 690,529 C682.982439,529.76253 628.982439,529.76253 528,529 C528.401078,632.311767 528.401078,687.978433 528,696 C526.747127,706.33523 513.569522,719.692284 502,721 C449.659277,721.601618 343.885096,723.002914 342,721 C336.585442,719.796765 319.376801,709.542684 318,696 C317.602905,649.937036 317.602905,561.428577 318,538 C319.017953,525.368422 332.51295,513.186867 342,512 C355.636664,511.598922 408.969997,511.598922 502,512 C501.803367,407.981959 501.837416,349.884155 502.102145,337.70659 C503.249356,327.243408 508.71155,320.659474 520.15067,319.658065 C576.538092,319.26097 626.103016,318.863876 692.814895,319.658065 Z" id="矩形" fill="#F7C440"></path>
        </g>
    </g>
</svg>

<svg xmlns="http://www.w3.org/2000/svg" width="1024" height="1024"><g fill="none" fill-rule="evenodd"><path fill="#FFF" d="M0 0h1024v1024H0z"/><path fill="#83B347" d="M807 150c28.486 2.322 61.162 30.035 64 60 2.21 50.84 2 301 0 413-1 25-41.4 52.544-64 55-17.672 1.92-58.006 1.92-121 0 .667 68 .667 111.333 0 130-1 22-31.865 57.707-61 61-127 0-273 1-404 0-34.017-3.161-59.533-26.896-63-61-1-116-1-342 0-401 2.564-31.81 32.805-59.962 63-64h125c-.667-58-.667-102.333 0-133 2.889-26.35 29.193-57.478 58-60 142-1 235-2 403 0"/><path fill="#FFF" d="M751 245c18.802 1.533 28.127 10.222 30 30 1.142 26.263-1 216 0 290-1.232 20.309-23.333 27.276-30 28-11.664 1.267-63.664 1.267-156 0 .667 94 .667 147.667 0 161-2.083 17.18-7.77 26.826-27 29-87 1-286.867 5.33-290 2-9-2-26.712-8.49-29-31-.66-76.565-1.66-247.057-1-286 1.692-20.996 16.23-30.027 32-32 22.667-.667 74-.667 154 0-.44-87.092-.44-140.759 0-161 1.907-17.392 10.986-28.335 30-30 93.726-.66 176.112-1.32 287 0"/><path fill="#F7C440" d="M692.815 319.658c11.311.922 16.921 6.15 18.048 18.049.687 15.8-.465 125.773.137 170.293-.741 12.218-12 21-21 21-7.018.763-61.018.763-162 0 .401 103.312.401 158.978 0 167-1.253 10.335-14.43 23.692-26 25-52.34.602-158.115 2.003-160 0-5.415-1.203-22.623-11.457-24-25-.397-46.063-.397-134.571 0-158 1.018-12.632 14.513-24.813 24-26 13.637-.401 66.97-.401 160 0-.197-104.018-.163-162.116.102-174.293 1.147-10.464 6.61-17.048 18.049-18.049 56.387-.397 105.952-.794 172.664 0"/></g></svg>
